assets/img/braze_icons/help-square.svg

<svg fill="none" height="24" viewBox="0 0 24 24" width="24" xmlns="http://www.w3.org/2000/svg"><path clip-rule="evenodd" d="m17.8385 2h-11.67704c-.52713-.00002-.98192-.00003-1.35649.03057-.39534.0323-.78856.10362-1.16694.29641-.56449.28762-1.02343.74656-1.31105 1.31105-.19279.37838-.26411.7716-.29641 1.16694-.0306.37457-.03059.82932-.03057 1.35645v11.67708c-.00002.5272-.00003.982.03057 1.3565.0323.3954.10362.7886.29641 1.167.28762.5645.74656 1.0234 1.31105 1.311.37838.1928.7716.2641 1.16694.2964.37457.0306.82933.0306 1.35647.0306h11.67716c.5271 0 .9819 0 1.3564-.0306.3954-.0323.7886-.1036 1.167-.2964.5645-.2876 1.0234-.7465 1.311-1.311.1928-.3784.2641-.7716.2964-1.167.0306-.3745.0306-.8293.0306-1.3564v-11.67716c0-.52714 0-.9819-.0306-1.35647-.0323-.39534-.1036-.78856-.2964-1.16694-.2876-.56449-.7465-1.02343-1.311-1.31105-.3784-.19279-.7716-.26411-1.167-.29641-.3745-.0306-.8293-.03059-1.3565-.03057zm-6.9319 6.27123c.4072-.23932.886-.3268 1.3515-.24695s.8878.32188 1.1919.68321c.3042.36134.4707.81866.47 1.29098v.00149c0 .46914-.3651.95824-1.0547 1.41794-.3144.2096-.6359.371-.8827.4808-.122.0542-.2223.0942-.2897.1199-.0299.0114-.06.0224-.0902.033-.5233.1751-.8059.741-.6314 1.2646.1747.5239.741.8071 1.2649.6324l.1687-.061c.0966-.0368.2307-.0905.39-.1613.3156-.1403.7442-.3539 1.1798-.6443.8102-.5401 1.9448-1.5508 1.9453-3.0811.0013-.94446-.3317-1.85889-.9399-2.58141-.6084-.72267-1.4528-1.20672-2.3839-1.36642-.931-.1597-1.8885.01526-2.70293.49389-.81441.47863-1.43314 1.23005-1.74661 2.12116-.18327.52099.0905 1.0919.61149 1.27518.52099.1833 1.09191-.0905 1.27515-.61149.1568-.44556.4661-.82127.8733-1.06058zm1.0934 7.72877c-.5523 0-1 .4477-1 1 0 .5522.4477 1 1 1h.01c.5523 0 1-.4478 1-1 0-.5523-.4477-1-1-1z" fill="#801ed7" fill-rule="evenodd"/></svg>

<svg width="24" height="24" viewBox="0 0 24 24" fill="none" xmlns="http://www.w3.org/2000/svg">
<path fill-rule="evenodd" clip-rule="evenodd" d="M17.8385 2H6.16146C5.63433 1.99998 5.17954 1.99997 4.80497 2.03057C4.40963 2.06287 4.01641 2.13419 3.63803 2.32698C3.07354 2.6146 2.6146 3.07354 2.32698 3.63803C2.13419 4.01641 2.06287 4.40963 2.03057 4.80497C1.99997 5.17954 1.99998 5.63429 2 6.16142V17.8385C1.99998 18.3657 1.99997 18.8205 2.03057 19.195C2.06287 19.5904 2.13419 19.9836 2.32698 20.362C2.6146 20.9265 3.07354 21.3854 3.63803 21.673C4.01641 21.8658 4.40963 21.9371 4.80497 21.9694C5.17954 22 5.6343 22 6.16144 22H17.8386C18.3657 22 18.8205 22 19.195 21.9694C19.5904 21.9371 19.9836 21.8658 20.362 21.673C20.9265 21.3854 21.3854 20.9265 21.673 20.362C21.8658 19.9836 21.9371 19.5904 21.9694 19.195C22 18.8205 22 18.3657 22 17.8386V6.16144C22 5.6343 22 5.17954 21.9694 4.80497C21.9371 4.40963 21.8658 4.01641 21.673 3.63803C21.3854 3.07354 20.9265 2.6146 20.362 2.32698C19.9836 2.13419 19.5904 2.06287 19.195 2.03057C18.8205 1.99997 18.3657 1.99998 17.8385 2ZM10.9066 8.27123C11.3138 8.03191 11.7926 7.94443 12.2581 8.02428C12.7236 8.10413 13.1459 8.34616 13.45 8.70749C13.7542 9.06883 13.9207 9.52615 13.92 9.99847L13.92 9.99996C13.92 10.4691 13.5549 10.9582 12.8653 11.4179C12.5509 11.6275 12.2294 11.7889 11.9826 11.8987C11.8606 11.9529 11.7603 11.9929 11.6929 12.0186C11.663 12.03 11.6329 12.041 11.6027 12.0516C11.0794 12.2267 10.7968 12.7926 10.9713 13.3162C11.146 13.8401 11.7123 14.1233 12.2362 13.9486L12.4049 13.8876C12.5015 13.8508 12.6356 13.7971 12.7949 13.7263C13.1105 13.586 13.5391 13.3724 13.9747 13.082C14.7849 12.5419 15.9195 11.5312 15.92 10.0009C15.9213 9.05644 15.5883 8.14201 14.9801 7.41949C14.3717 6.69682 13.5273 6.21277 12.5962 6.05307C11.6652 5.89337 10.7077 6.06833 9.89327 6.54696C9.07886 7.02559 8.46013 7.77701 8.14666 8.66812C7.96339 9.18911 8.23716 9.76002 8.75815 9.9433C9.27914 10.1266 9.85006 9.8528 10.0333 9.33181C10.1901 8.88625 10.4994 8.51054 10.9066 8.27123ZM12 16C11.4477 16 11 16.4477 11 17C11 17.5522 11.4477 18 12 18H12.01C12.5623 18 13.01 17.5522 13.01 17C13.01 16.4477 12.5623 16 12.01 16H12Z" fill="#801ED7"/>
</svg>
